X:1
T:Title
%%score { 1 | 2 }
L:1/8
Q:1/4=184
M:2/2
K:Eb
V:1 treble nm="Grand Piano"
V:2 bass 
V:1
 G8 | B4 E4 | [B,EG]4 [A,CF]4 | [G,B,E]4 [F,B,D]4 | [E,G,E]8 | [B,DF]8 | [B,EG]4 [Ee]4 | [Fd]4 c4 | %8
w: F.~R.~Havergal||||||||
 B4 =A4 | [DB]8 | [EB]8 | [Ee]4 [Ec]4 | [B,EB]4 [G,E]4 | [CEF]4 [B,DF]4 | [G,E]8 |] %15
w: |||||||
V:2
 [E,G,B,]8 | [D,F,B,]4 [C,G,]4 | G,,4 A,,4 | B,,4 B,,4 | C,8 | B,,8 | E,4 [C,C]4 | %7
 [D,B,]4 [E,G,E]4 | [F,D]4 [F,C]4 | [B,,F,]8 | [E,G,]8 | [C,G,]4 [A,,A,]4 | G,,4 C,4 | A,,4 B,,4 | %14
 E,8 |] %15

